ghost/admin/public/assets/icons/event-email-delivery-failed--feature-attribution.svg

<svg width="24" height="24" viewBox="0 0 24 24" fill="none" xmlns="http://www.w3.org/2000/svg">
<path d="M13.2401 18.5546L10.8426 16.1681L8.26916 17.4988L8.36814 13.6826L5.35477 10.6693C5.21299 10.5276 5.10861 10.353 5.05102 10.161C4.99343 9.96906 4.98444 9.76579 5.02484 9.5695C5.06399 9.35366 5.16006 9.1522 5.30314 8.98592C5.44621 8.81965 5.63109 8.6946 5.83867 8.6237L17.6392 4.68653C17.8603 4.60436 18.1003 4.5874 18.3308 4.63768C18.5613 4.68796 18.7724 4.80335 18.9392 4.97014C19.106 5.13694 19.2214 5.34811 19.2717 5.57857C19.322 5.80904 19.305 6.04909 19.2229 6.27019L17.1077 12.6099" stroke="#6C747D" stroke-width="1.5" stroke-linecap="round" stroke-linejoin="round"/>
<path d="M18.871 4.92871L8.36816 13.6829" stroke="#6C747D" stroke-width="1.5" stroke-linecap="round" stroke-linejoin="round"/>
<path d="M15.3477 14.0586L20.243 18.9539" stroke="#F50B23" stroke-width="1.5" stroke-linecap="round" stroke-linejoin="round"/>
<path d="M15.3477 18.9531L20.243 14.0578" stroke="#F50B23" stroke-width="1.5" stroke-linecap="round" stroke-linejoin="round"/>
</svg>

<svg width="24" height="24" viewBox="0 0 24 24" fill="none" xmlns="http://www.w3.org/2000/svg">
  <title>event-email-delivery-failed--feature-attribution</title>
  <path d="m13.24 18.555-2.397-2.387-2.574 1.33.1-3.815-3.014-3.014a1.21 1.21 0 0 1-.33-1.1 1.232 1.232 0 0 1 .814-.945l11.8-3.937a1.232 1.232 0 0 1 1.584 1.583l-2.115 6.34m1.763-7.681L8.368 13.683" stroke="#6C747D" stroke-width="1.5" stroke-linecap="round" stroke-linejoin="round"/>
  <path d="m15.348 14.059 4.895 4.895m-4.895-.001 4.895-4.895" stroke="#F50B23" stroke-width="1.5" stroke-linecap="round" stroke-linejoin="round"/>
</svg>
